ZUCCAL
CUT["Der Alpjaeger"
    I BIN EIN FREIER SCHUETZE]
REG[Europa, Mitteleuropa, Schweiz]
KEY[Z1289  16 Bb 2/4]
MEL[-5_  1_.23_4_  3_5_-5_
    5_  2_5_-5_-7_  1__.
    -5_  1_.23_4_  3_5_-5_
    5_  2_5_-5_-7_  1__0_
    -5_  2_.1-7_-6_  -5_-6_-7_
    1_  2_-7_2_-7_  2__0_
    -5_  1_.23_4_  3_5_-5_
    5_  2_5_-5_5_  1__0_ //] >>
FCT[Jaeger - Lied]
